dist/images/home-icon.svg

<svg width="78" height="88" viewBox="0 0 78 88" fill="none" xmlns="http://www.w3.org/2000/svg">
<g clip-path="url(#clip0_250_420)">
<rect width="78" height="88" fill="white"/>
<path d="M14.5312 24H55.5001L42.3411 72H27.64L14.5312 24Z" fill="#114425"/>
<path fill-rule="evenodd" clip-rule="evenodd" d="M44 4.00279L51.1773 4.00225L54.0663 8.00354H15.9242L18.8112 4.00509L44 4.00217V4.00279ZM63 8.00354H58.9999L53.2294 0.0113411V0.00209165L53.2227 0.00209216L53.2212 0L53.2183 0.00209249L48.9998 0.0024108V0.00158691L16.7734 0.00532138V0.0112613L16.7634 0.00407248L10.9877 8.00354H7V12.0035H63V8.00354ZM5.0022 16.0035H65.0022V20.0035H9.14387L24.4438 76.0035H45.5498L59.7541 24.014L59.7561 24.0145V24.005L77.3462 24.0019V24.0035H78.4314L70.8414 51.9944V52.0037L56.2545 52.0062L49.0023 78.5505V78.5563L48.6068 80.0035H21.3848L20.292 76.0035H20.3009L5 20.0002L5.0022 19.9996V16.0035ZM67.7751 48.0042L73.1987 28.0027L62.8121 28.0045L57.3474 48.006L67.7751 48.0042ZM49 84H21V88H49V84Z" fill="black"/>
</g>
<defs>
<clipPath id="clip0_250_420">
<rect width="78" height="88" fill="white"/>
</clipPath>
</defs>
</svg>

<svg width="78" height="88" fill="none" xmlns="http://www.w3.org/2000/svg"><g clip-path="url(#clip0_250_420)"><path d="M14.531 24h40.97L42.34 72h-14.7L14.531 24z" fill="#114425"/><path fill-rule="evenodd" clip-rule="evenodd" d="M44 4.003h7.177l2.89 4H15.923l2.887-3.998L44 4.002zm19 4h-4L53.23.012v-.01h-.007L53.22 0l-.003.002H49L16.773.005v.006l-.01-.007-5.775 8H7v4h56v-4zm-57.998 8h60v4H9.144l15.3 56H45.55l14.204-51.989h.002v-.009l17.59-.003v.002h1.085l-7.59 27.99v.01l-14.586.002-7.253 26.544v.006l-.395 1.448H21.385l-1.093-4h.009L5 20h.002v-3.997zm62.773 32.001L73.2 28.003l-10.387.002-5.465 20.001 10.428-.002zM49 84H21v4h28v-4z" fill="#000"/></g><defs><clipPath id="clip0_250_420"><path fill="#fff" d="M0 0h78v88H0z"/></clipPath></defs></svg>
